static/img/kroki/7f1f5a1c04a49d93bfd6f9d799385728.svg

<?xml version="1.0" encoding="us-ascii" standalone="no"?><svg xmlns="http://www.w3.org/2000/svg" xmlns:xlink="http://www.w3.org/1999/xlink" contentStyleType="text/css" height="252px" preserveAspectRatio="none" style="width:266px;height:252px;" version="1.1" viewBox="0 0 266 252" width="266px" zoomAndPan="magnify"><defs/><g><!--class aws_account--><g id="elem_aws_account"><rect codeLine="23" fill="#3D176E" height="39.7891" id="aws_account" rx="2.5" ry="2.5" style="stroke:#000D19;stroke-width:0.5;" width="149" x="58.5" y="7"/><ellipse cx="73.5" cy="26.8945" fill="#ADD1B2" rx="11" ry="11" style="stroke:#181818;stroke-width:1.0;"/><path d="M76.4688,32.5352 Q75.8906,32.832 75.25,32.9727 Q74.6094,33.1289 73.9063,33.1289 Q71.4063,33.1289 70.0781,31.4883 Q68.7656,29.832 68.7656,26.707 Q68.7656,23.582 70.0781,21.9258 Q71.4063,20.2695 73.9063,20.2695 Q74.6094,20.2695 75.25,20.4258 Q75.9063,20.582 76.4688,20.8789 L76.4688,23.5977 Q75.8438,23.0195 75.25,22.7539 Q74.6563,22.4727 74.0313,22.4727 Q72.6875,22.4727 72,23.5508 Q71.3125,24.6133 71.3125,26.707 Q71.3125,28.8008 72,29.8789 Q72.6875,30.9414 74.0313,30.9414 Q74.6563,30.9414 75.25,30.6758 Q75.8438,30.3945 76.4688,29.8164 L76.4688,32.5352 Z " fill="#000000"/><text fill="#D9B8FF" font-family="Helvetica" font-size="17" lengthAdjust="spacing" textLength="107" x="92.5" y="32.7798">aws_account</text></g><!--class aws_s3_account_settings--><g id="elem_aws_s3_account_settings"><rect codeLine="26" fill="#3D176E" height="39.7891" id="aws_s3_account_settings" rx="2.5" ry="2.5" style="stroke:#000D19;stroke-width:0.5;" width="252" x="7" y="106.79"/><ellipse cx="22" cy="126.6845" fill="#ADD1B2" rx="11" ry="11" style="stroke:#181818;stroke-width:1.0;"/><path d="M24.9688,132.3252 Q24.3906,132.622 23.75,132.7627 Q23.1094,132.9189 22.4063,132.9189 Q19.9063,132.9189 18.5781,131.2783 Q17.2656,129.622 17.2656,126.497 Q17.2656,123.372 18.5781,121.7158 Q19.9063,120.0595 22.4063,120.0595 Q23.1094,120.0595 23.75,120.2158 Q24.4063,120.372 24.9688,120.6689 L24.9688,123.3877 Q24.3438,122.8095 23.75,122.5439 Q23.1563,122.2627 22.5313,122.2627 Q21.1875,122.2627 20.5,123.3408 Q19.8125,124.4033 19.8125,126.497 Q19.8125,128.5908 20.5,129.6689 Q21.1875,130.7314 22.5313,130.7314 Q23.1563,130.7314 23.75,130.4658 Q24.3438,130.1845 24.9688,129.6064 L24.9688,132.3252 Z " fill="#000000"/><text fill="#D9B8FF" font-family="Helvetica" font-size="17" lengthAdjust="spacing" textLength="210" x="41" y="132.5698">aws_s3_account_settings</text></g><!--class aws_s3_bucket--><g id="elem_aws_s3_bucket"><rect codeLine="29" fill="#3D176E" height="39.7891" id="aws_s3_bucket" rx="2.5" ry="2.5" style="stroke:#000D19;stroke-width:0.5;" width="168" x="49" y="206.58"/><ellipse cx="64" cy="226.4745" fill="#ADD1B2" rx="11" ry="11" style="stroke:#181818;stroke-width:1.0;"/><path d="M66.9688,232.1152 Q66.3906,232.412 65.75,232.5527 Q65.1094,232.7089 64.4063,232.7089 Q61.9063,232.7089 60.5781,231.0683 Q59.2656,229.412 59.2656,226.287 Q59.2656,223.162 60.5781,221.5058 Q61.9063,219.8495 64.4063,219.8495 Q65.1094,219.8495 65.75,220.0058 Q66.4063,220.162 66.9688,220.4589 L66.9688,223.1777 Q66.3438,222.5995 65.75,222.3339 Q65.1563,222.0527 64.5313,222.0527 Q63.1875,222.0527 62.5,223.1308 Q61.8125,224.1933 61.8125,226.287 Q61.8125,228.3808 62.5,229.4589 Q63.1875,230.5214 64.5313,230.5214 Q65.1563,230.5214 65.75,230.2558 Q66.3438,229.9745 66.9688,229.3964 L66.9688,232.1152 Z " fill="#000000"/><text fill="#D9B8FF" font-family="Helvetica" font-size="17" lengthAdjust="spacing" textLength="126" x="83" y="232.3598">aws_s3_bucket</text></g><!--link aws_account to aws_s3_account_settings--><g id="link_aws_account_aws_s3_account_settings"><path codeLine="32" d="M133,47.22 C133,64.36 133,83.27 133,100.41 " fill="none" id="aws_account-to-aws_s3_account_settings" style="stroke:#1A83AF;stroke-width:2.0;"/><polygon fill="#1A83AF" points="133,106.41,137,97.41,133,101.41,129,97.41,133,106.41" style="stroke:#1A83AF;stroke-width:2.0;"/></g><!--link aws_s3_account_settings to aws_s3_bucket--><g id="link_aws_s3_account_settings_aws_s3_bucket"><path codeLine="33" d="M133,147.01 C133,164.15 133,183.06 133,200.2 " fill="none" id="aws_s3_account_settings-to-aws_s3_bucket" style="stroke:#1A83AF;stroke-width:2.0;"/><polygon fill="#1A83AF" points="133,206.2,137,197.2,133,201.2,129,197.2,133,206.2" style="stroke:#1A83AF;stroke-width:2.0;"/></g><!--SRC=[XP1FJy904CNl_HIRS2PfRHIuc5GIeXTYn9inPBix2vkskytC847ZTnS4pDe_S9ttc_VUpDfg453Ll1CLL3aWHLHOLqkKbSWG_NRgIuzYO8mqwQWfphpZgy1SLY0UeVm0jaesYTUrLOK38d4JI0zI5Ilq6wUFzepIqLu2nm4rBILHnemstp04PVGa7nlJ99kcWrGdepjeOHuru0c9urWdaoPoDUhYtN_4mdw2ICAdpJr3gsOhufUwsF9012LRXvxrtexFKclhLk8scBqSEw43_3TVhANssmDjP4bX334WUDxLC6rT1PEnDgDE-AaFZjJXTK9kQIcLskiilgBeEnXJUbQM1CpxKjI1v1jLm6atD1k-3P9id6Qpz-5zdrtK5zErV0oAVW00]--></g></svg>

<svg xmlns="http://www.w3.org/2000/svg" width="266" height="252" viewBox="0 0 266 252"><rect width="149" height="39.789" x="58.5" y="7" fill="#3D176E" rx="2.5" ry="2.5" style="stroke:#000d19;stroke-width:.5"/><circle cx="73.5" cy="26.895" r="11" fill="#ADD1B2" style="stroke:#181818;stroke-width:1"/><path d="M76.469 32.535q-.578.297-1.219.438-.64.156-1.344.156-2.5 0-3.828-1.64-1.312-1.657-1.312-4.782t1.312-4.781q1.328-1.656 3.828-1.656.703 0 1.344.156.656.156 1.219.453v2.719q-.625-.578-1.219-.844-.594-.281-1.219-.281-1.344 0-2.031 1.078-.687 1.062-.687 3.156T72 29.879q.688 1.062 2.031 1.062.625 0 1.219-.265.594-.281 1.219-.86z"/><text x="92.5" y="32.78" fill="#D9B8FF" font-family="Helvetica" font-size="17" textLength="107">aws_account</text><rect width="252" height="39.789" x="7" y="106.79" fill="#3D176E" rx="2.5" ry="2.5" style="stroke:#000d19;stroke-width:.5"/><circle cx="22" cy="126.684" r="11" fill="#ADD1B2" style="stroke:#181818;stroke-width:1"/><path d="M24.969 132.325q-.578.297-1.219.438-.64.156-1.344.156-2.5 0-3.828-1.64-1.312-1.657-1.312-4.782t1.312-4.781q1.328-1.656 3.828-1.656.703 0 1.344.156.656.156 1.219.453v2.719q-.625-.579-1.219-.844-.594-.281-1.219-.281-1.343 0-2.031 1.078-.687 1.062-.687 3.156t.687 3.172q.688 1.062 2.031 1.062.625 0 1.219-.265.594-.281 1.219-.86z"/><text x="41" y="132.57" fill="#D9B8FF" font-family="Helvetica" font-size="17" textLength="210">aws_s3_account_settings</text><rect width="168" height="39.789" x="49" y="206.58" fill="#3D176E" rx="2.5" ry="2.5" style="stroke:#000d19;stroke-width:.5"/><circle cx="64" cy="226.475" r="11" fill="#ADD1B2" style="stroke:#181818;stroke-width:1"/><path d="M66.969 232.115q-.578.297-1.219.438-.64.156-1.344.156-2.5 0-3.828-1.64-1.312-1.657-1.312-4.782t1.312-4.781q1.328-1.656 3.828-1.656.703 0 1.344.156.656.156 1.219.453v2.719q-.625-.578-1.219-.844-.594-.281-1.219-.281-1.344 0-2.031 1.078-.687 1.062-.687 3.156t.687 3.172q.688 1.062 2.031 1.062.625 0 1.219-.265.594-.281 1.219-.86z"/><text x="83" y="232.36" fill="#D9B8FF" font-family="Helvetica" font-size="17" textLength="126">aws_s3_bucket</text><path fill="none" d="M133 47.22v53.19" style="stroke:#1a83af;stroke-width:2"/><path fill="#1A83AF" d="m133 106.41 4-9-4 4-4-4z" style="stroke:#1a83af;stroke-width:2"/><path fill="none" d="M133 147.01v53.19" style="stroke:#1a83af;stroke-width:2"/><path fill="#1A83AF" d="m133 206.2 4-9-4 4-4-4z" style="stroke:#1a83af;stroke-width:2"/></svg>
